X: 1066
T:Boolavogue
T:Boolavogue March, The (A29)
T:Boulavogue
N: Page A29
N: hexatonic
N: matches 343
R:waltz
M:3/4
L:1/8
K:Gmaj
D2|"G"G4 D2|G4 Bd|"G/B"g4 f2|"C"e2 g3e|"Bm"d4 e2|"Em"B4 AG|
"Am"A4 G2|"D"E4 F2|"G"G4 D2|G4 Bd|"G/B"g4 f2|"C"e g4 e|"Bm"d4 e2|
"Em"B4 AG|"Am"A4 "D"{E}G2|"G" G4 d2|d4 B2|"Bm"d4 ef|"Em"g4 f2|"C"e g4 e|
"Bm"d4 e2|"Em"B4 AG|"Am"A4 G2|"D"E4 F2|"G"G4 D2|G4 Bd|"G/B"g4 f2|
"C"e g4 e|"Bm"d4 e2|"Em"B4 AG|"Am"A4 "D"{E}G2|G4:|
